svg/storefront_remove_outline.svg

<svg xmlns="http://www.w3.org/2000/svg" viewBox="0 0 24 24"><path d="M3.84 3.42c.38-.28.79-.42 1.22-.42h13.88c.44 0 .83.14 1.19.42.37.28.6.64.73 1.08l1.03 4.41c.25 1.09.05 2.04-.61 2.86l-.15.15-.13.14c-.57.59-1.24.94-2.19.94s-1.7-.38-2.27-.95c-.63.62-1.37.95-2.24.95-.85 0-1.62-.3-2.3-.93-.56.56-1.36.93-2.2.93-.94 0-1.7-.33-2.33-.95-.56.54-1.31.95-2.25.95H5v6h7.08c.12.72.37 1.39.72 2H5c-.5 0-1-.22-1.39-.61S3 19.5 3 19v-6.97c-.1-.09-.2-.19-.31-.3-.63-.81-.83-1.73-.58-2.82L3.14 4.5c.1-.44.32-.8.7-1.08m16.13 5.96-1.08-4.41-1.92.03.61 4.84c.03.32.15.59.37.82.22.24.49.34.8.34.38 0 .69-.14.94-.45.28-.35.37-.74.28-1.17M7.03 5H5.06L4.03 9.38c-.09.43 0 .82.28 1.17.22.31.53.45.94.45.66 0 1.05-.37 1.17-1.16zM11 5H9.05L8.5 9.5v.16c0 .34.11.64.34.93s.52.41.86.41c.38 0 .69-.12.94-.38.25-.27.36-.57.36-.92zm3.95 0H13v4.7c0 .35.11.65.36.92.25.26.53.38.84.38.41 0 .75-.13 1.01-.43.29-.3.37-.65.29-1.07zm6.59 10.88-1.42-1.41L18 16.59l-2.12-2.12-1.41 1.41L16.59 18l-2.12 2.12 1.41 1.42L18 19.41l2.12 2.13 1.42-1.42L19.41 18z"/></svg>

<svg xmlns="http://www.w3.org/2000/svg" id="mdi-storefront-remove-outline" viewBox="0 0 24 24"><path d="M3.84 3.42C4.22 3.14 4.63 3 5.06 3H18.94C19.38 3 19.77 3.14 20.13 3.42C20.5 3.7 20.73 4.06 20.86 4.5L21.89 8.91C22.14 10 21.94 10.95 21.28 11.77C21.23 11.82 21.18 11.87 21.13 11.92L21 12.06C20.43 12.65 19.76 13 18.81 13S17.11 12.62 16.54 12.05C15.91 12.67 15.17 13 14.3 13C13.45 13 12.68 12.7 12 12.07C11.44 12.63 10.64 13 9.8 13C8.86 13 8.1 12.67 7.47 12.05C6.91 12.59 6.16 13 5.22 13C5.15 13 5.07 13 5 13V19H12.08C12.2 19.72 12.45 20.39 12.8 21H5C4.5 21 4 20.78 3.61 20.39S3 19.5 3 19V12.03C2.9 11.94 2.8 11.84 2.69 11.73C2.06 10.92 1.86 10 2.11 8.91L3.14 4.5C3.24 4.06 3.46 3.7 3.84 3.42M19.97 9.38L18.89 4.97L16.97 5L17.58 9.84C17.61 10.16 17.73 10.43 17.95 10.66C18.17 10.9 18.44 11 18.75 11C19.13 11 19.44 10.86 19.69 10.55C19.97 10.2 20.06 9.81 19.97 9.38M7.03 5H5.06L4.03 9.38C3.94 9.81 4.03 10.2 4.31 10.55C4.53 10.86 4.84 11 5.25 11C5.91 11 6.3 10.63 6.42 9.84L7.03 5M11 5H9.05L8.5 9.5V9.66C8.5 10 8.61 10.3 8.84 10.59S9.36 11 9.7 11C10.08 11 10.39 10.88 10.64 10.62C10.89 10.35 11 10.05 11 9.7V5M14.95 5H13V9.7C13 10.05 13.11 10.35 13.36 10.62C13.61 10.88 13.89 11 14.2 11C14.61 11 14.95 10.87 15.21 10.57C15.5 10.27 15.58 9.92 15.5 9.5L14.95 5M21.54 15.88L20.12 14.47L18 16.59L15.88 14.47L14.47 15.88L16.59 18L14.47 20.12L15.88 21.54L18 19.41L20.12 21.54L21.54 20.12L19.41 18L21.54 15.88Z" /></svg>
